dist/img/icons/socials/tel.svg

<svg width="36" height="36" viewBox="0 0 36 36" fill="none" xmlns="http://www.w3.org/2000/svg">
<path d="M35.979 27.1943C35.6581 29.6334 34.4602 31.8722 32.6092 33.4927C30.7582 35.1131 28.3806 36.0044 25.9205 36C11.6282 36 1.62878e-05 24.3719 1.62878e-05 10.0797C-0.00439375 7.61963 0.886868 5.24205 2.50734 3.39104C4.12781 1.54003 6.36667 0.342191 8.80577 0.021236C9.42255 -0.0540751 10.0472 0.0721079 10.5863 0.380949C11.1255 0.689789 11.5503 1.16472 11.7974 1.73485L15.5991 10.2219V10.2435C15.7882 10.68 15.8664 11.1564 15.8265 11.6304C15.7866 12.1044 15.6299 12.5611 15.3705 12.9598C15.3381 13.0084 15.3039 13.0534 15.2679 13.0984L11.5202 17.5408C12.8684 20.2804 15.7341 23.1209 18.5097 24.4727L22.891 20.7448C22.934 20.7087 22.9791 20.675 23.026 20.644C23.4243 20.3784 23.8826 20.2162 24.3594 20.1722C24.8362 20.1282 25.3164 20.2037 25.7567 20.392L25.7801 20.4028L34.26 24.2027C34.8311 24.4489 35.3072 24.8733 35.6171 25.4126C35.927 25.9518 36.0539 26.5769 35.979 27.1943Z" fill="#C9CDCA"/>
</svg>

<svg width="36" height="36" viewBox="0 0 36 36" fill="none" xmlns="http://www.w3.org/2000/svg"><path d="M35.979 27.194A10.127 10.127 0 0125.921 36C11.628 36 0 24.372 0 10.08A10.127 10.127 0 018.806.02a2.88 2.88 0 012.991 1.714l3.802 8.487v.021a2.88 2.88 0 01-.229 2.717 1.97 1.97 0 01-.102.138L11.52 17.54c1.348 2.74 4.214 5.58 6.99 6.932l4.381-3.728c.043-.036.088-.07.135-.101a2.88 2.88 0 012.73-.252l.024.01 8.48 3.8a2.88 2.88 0 011.719 2.992z" fill="#C9CDCA"/></svg>
